public/images/sidebar/settings.svg

<svg width="16" height="16" viewBox="0 0 16 16" fill="none" xmlns="http://www.w3.org/2000/svg">
<path fill-rule="evenodd" clip-rule="evenodd" d="M8.00671 11.9998C5.80071 11.9998 4.00671 10.2058 4.00671 7.9998C4.00671 5.7938 5.80071 3.9998 8.00671 3.9998C10.2127 3.9998 12.0067 5.7938 12.0067 7.9998C12.0067 10.2058 10.2127 11.9998 8.00671 11.9998M14.1007 7.19246L13.87 7.17246C13.408 7.12313 13.234 6.84513 13.1727 6.69446C13.0447 6.1858 12.844 5.7078 12.582 5.26846C12.5187 5.1218 12.4374 4.7978 12.7347 4.43046L12.8827 4.25313C13.2067 3.8838 13.0774 3.65246 12.8187 3.39246L12.604 3.17846C12.3447 2.91913 12.1127 2.79046 11.7434 3.1138L11.566 3.26246C11.176 3.57713 10.8354 3.4678 10.7034 3.4038C10.2907 3.16113 9.84271 2.9738 9.36871 2.84846C9.25871 2.8178 8.88271 2.67313 8.82471 2.12713L8.80404 1.89646C8.77137 1.40646 8.51737 1.33313 8.15004 1.33313H7.84671C7.48004 1.33313 7.22471 1.40646 7.19271 1.89646L7.17204 2.12713C7.10404 2.76646 6.59671 2.85713 6.59671 2.85713C6.59671 2.85846 6.59737 2.8598 6.59737 2.86113C6.15871 2.98113 5.74337 3.1578 5.35804 3.37913C5.35671 3.37713 5.35604 3.3738 5.35404 3.3718C5.35404 3.3718 4.93137 3.66646 4.43137 3.26313L4.25337 3.1138C3.88404 2.79046 3.65204 2.91913 3.39271 3.17846L3.17871 3.39246C2.91937 3.65246 2.79071 3.8838 3.11337 4.25313L3.26271 4.43046C3.66671 4.93113 3.37137 5.3538 3.37137 5.3538C3.37471 5.35646 3.37871 5.3578 3.38204 5.3598C3.16071 5.7458 2.98537 6.16046 2.86604 6.59913C2.86271 6.59846 2.85937 6.59713 2.85671 6.59646C2.85671 6.59646 2.76671 7.1038 2.12737 7.17246L1.89604 7.19246C1.40671 7.22513 1.33337 7.48046 1.33337 7.84713V8.15046C1.33337 8.51646 1.40671 8.7718 1.89604 8.8038L2.12737 8.82446C2.76671 8.89246 2.85671 9.40046 2.85671 9.40046C2.85937 9.40046 2.86204 9.39913 2.86471 9.39846C2.98471 9.83713 3.15671 10.2538 3.37671 10.6398C3.37537 10.6411 3.37271 10.6411 3.37137 10.6425C3.37137 10.6425 3.66671 11.0658 3.26271 11.5658L3.11337 11.7431C2.79071 12.1125 2.91871 12.3451 3.17871 12.6038L3.39271 12.8185C3.65204 13.0778 3.88404 13.2065 4.25337 12.8825L4.43137 12.7345C4.93137 12.3298 5.35404 12.6251 5.35404 12.6251C5.35471 12.6245 5.35471 12.6238 5.35537 12.6231C5.74204 12.8451 6.15804 13.0178 6.59671 13.1385V13.1405C6.59671 13.1405 7.10404 13.2311 7.17204 13.8705L7.19271 14.1005C7.22471 14.5905 7.48004 14.6631 7.84671 14.6631H8.15004C8.51737 14.6631 8.77137 14.5905 8.80404 14.1005L8.82471 13.8705C8.87804 13.3718 9.19537 13.2078 9.33404 13.1598C9.81871 13.0358 10.2747 12.8431 10.6954 12.5971C10.8207 12.5345 11.1667 12.4118 11.566 12.7345L11.7434 12.8831C12.1127 13.2065 12.3447 13.0778 12.604 12.8185L12.8187 12.6038C13.0774 12.3451 13.2067 12.1125 12.8827 11.7431L12.7347 11.5665C12.4154 11.1705 12.5314 10.8271 12.5954 10.6991C12.85 10.2665 13.0487 9.7978 13.1747 9.29846C13.2374 9.14713 13.4107 8.8738 13.87 8.82446L14.1007 8.8038C14.59 8.7718 14.6627 8.51646 14.6627 8.15046V7.84713C14.6627 7.48046 14.59 7.22513 14.1007 7.19246" fill="#121312"/>
</svg>

<svg width="16" height="16" fill="none" xmlns="http://www.w3.org/2000/svg"><path fill-rule="evenodd" clip-rule="evenodd" d="M8.007 12c-2.206 0-4-1.794-4-4s1.794-4 4-4 4 1.794 4 4-1.794 4-4 4zM14.1 7.192l-.231-.02c-.462-.049-.636-.327-.697-.478a5.31 5.31 0 00-.591-1.426c-.063-.146-.145-.47.153-.838l.148-.177c.324-.37.194-.6-.064-.86l-.215-.215c-.26-.259-.491-.388-.86-.064l-.178.148c-.39.315-.73.206-.863.142a5.307 5.307 0 00-1.334-.556c-.11-.03-.486-.175-.544-.721l-.021-.23c-.033-.49-.287-.564-.654-.564h-.303c-.367 0-.622.073-.654.563l-.021.231c-.068.64-.575.73-.575.73v.004c-.438.12-.854.297-1.24.518 0-.002-.001-.005-.003-.007 0 0-.423.294-.923-.109l-.178-.15c-.37-.323-.601-.194-.86.065l-.214.214c-.26.26-.388.492-.066.861l.15.177c.404.501.108.924.108.924l.01.006c-.22.386-.396.8-.515 1.239l-.01-.003s-.09.508-.729.576l-.231.02c-.49.033-.563.288-.563.655v.303c0 .366.074.622.563.654l.231.02c.64.068.73.576.73.576l.008-.002c.12.439.292.856.512 1.242l-.006.002s.296.424-.108.924l-.15.177c-.322.37-.194.602.066.86l.214.215c.259.26.49.388.86.064l.178-.148c.5-.404.923-.109.923-.109l.001-.002c.387.222.803.395 1.242.515v.002s.507.091.575.73l.02.23c.033.49.288.563.655.563h.303c.367 0 .621-.073.654-.563l.02-.23c.054-.498.371-.662.51-.71.485-.124.94-.317 1.361-.563.126-.063.472-.185.87.137l.178.149c.37.323.602.195.86-.065l.216-.214c.258-.259.388-.492.064-.861l-.148-.177c-.32-.396-.204-.739-.14-.867.255-.433.454-.901.58-1.4.062-.152.236-.425.695-.475l.23-.02c.49-.032.563-.288.563-.654v-.303c0-.367-.073-.622-.562-.655z" fill="#162D45"/><path d="M13.87 7.172l-.027.249h.005l.022-.249zm-.697-.478l-.243.061.004.017.007.017.232-.095zm-.591-1.426l-.23.1.007.014.008.014.215-.128zm.153-.838l-.192-.16-.003.003.195.157zm.148-.177l-.188-.165-.004.005.192.16zm-.064-.86l.177-.177-.177.176zm-.215-.215l-.177.177.177-.177zm-.86-.064l.16.191.004-.003-.165-.188zm-.178.148l.157.195.003-.003-.16-.192zm-.863.142l-.127.215.01.005.008.005.11-.225zM9.37 2.848L9.3 3.09l.004.001.064-.242zm-.544-.721l-.25.022.001.004.249-.026zm-.021-.23l-.25.016v.006l.25-.023zm-1.611 0l.249.022v-.006l-.25-.017zm-.021.23l.249.026V2.15l-.25-.022zm-.575.73l-.044-.246-.206.037v.209h.25zm0 .004l.066.241.184-.05V2.86h-.25zm-1.24.518l-.207.139.13.194.202-.116-.124-.217zm-.003-.007l.177-.177-.148-.148-.172.12.143.205zm-.923-.109l-.16.192.003.003.157-.195zm-.178-.15l-.164.189.004.003.16-.191zm-.86.065l-.177-.176.177.176zm-.214.214l-.177-.176.177.176zm-.066.861l.192-.161-.003-.003-.189.164zm.15.177l.194-.157-.003-.004-.191.161zm.108.924l-.205-.144-.134.193.183.146.156-.195zm.01.006l.218.124.122-.213-.21-.126-.13.215zm-.515 1.239l-.05.245.23.046.061-.225-.241-.066zm-.01-.003l.061-.242-.26-.065-.047.264.247.043zm-.729.576l.022.25.005-.001-.027-.249zm-.231.02l.017.25h.004l-.021-.25zm0 1.612l.022-.25h-.006l-.016.25zm.231.02l.027-.248H2.15l-.023.248zm.73.576l-.247.044.037.206h.21V9.4zm.008-.002l.24-.066-.064-.236-.237.06.06.242zm.512 1.242l.176.176.135-.134-.094-.166-.217.124zm-.006.002l-.177-.176-.148.148.12.171.205-.143zm-.108.924l.19.16.004-.003-.194-.157zm-.15.177l.189.165.002-.004-.19-.161zm.066.86l.177-.176h-.001l-.176.177zm.214.215l-.177.177.177-.177zm.86.064l-.16-.192-.005.004.165.188zm.178-.148l-.157-.194-.003.002.16.192zm.923-.109l-.143.205.172.12.148-.148-.177-.177zm.001-.002l.125-.217-.166-.095-.136.135.177.177zm1.242.515h.25v-.19l-.184-.05-.066.24zm0 .002h-.25v.21l.206.036.044-.246zm.575.73l.249-.022v-.004l-.25.026zm.02.23l.25-.016v-.006l-.25.022zm1.612 0l-.25-.022v.006l.25.016zm.02-.23l-.248-.026v.004l.249.022zm.51-.71l-.062-.242-.01.002-.01.003.082.237zm1.361-.563l-.112-.224-.007.004-.007.004.126.216zm.87.137l.162-.191-.004-.003-.157.194zm.178.149l.165-.188-.004-.004-.16.192zm.86-.065l-.176-.176.177.176zm.216-.214l.176.177-.176-.177zm.064-.861l-.192.16.004.005.188-.165zm-.148-.177l-.195.157.003.004.192-.16zm-.14-.867l-.215-.127-.005.008-.003.007.223.112zm.58-1.4l-.231-.096-.007.017-.005.017.243.061zm.695-.475l-.022-.249h-.005l.027.25zm.23-.02l-.016-.25h-.006l.023.25zM8.008 11.75A3.754 3.754 0 014.257 8h-.5a4.254 4.254 0 004.25 4.25v-.5zM4.257 8a3.754 3.754 0 013.75-3.75v-.5A4.254 4.254 0 003.757 8h.5zm3.75-3.75A3.754 3.754 0 0111.757 8h.5a4.254 4.254 0 00-4.25-4.25v.5zM11.757 8a3.754 3.754 0 01-3.75 3.75v.5A4.254 4.254 0 0012.257 8h-.5zm2.365-1.057l-.23-.02-.044.498.231.02.043-.498zm-.226-.02c-.345-.036-.455-.231-.492-.323l-.463.189c.085.21.324.57.902.632l.053-.497zm-.481-.29a5.556 5.556 0 00-.618-1.493l-.43.256c.25.42.441.875.563 1.36l.485-.123zm-.604-1.464c-.038-.09-.104-.308.118-.581l-.389-.315c-.373.461-.275.89-.188 1.094l.46-.198zm.116-.578l.148-.178-.384-.32-.148.177.384.32zm.143-.173c.189-.215.288-.44.245-.68-.039-.22-.188-.39-.32-.522l-.354.353c.128.128.172.203.182.256.006.033.007.108-.128.263l.375.33zm-.075-1.203l-.215-.214-.353.354.215.214.353-.354zm-.214-.213c-.132-.132-.303-.282-.523-.32-.24-.043-.465.056-.68.244l.33.376c.155-.136.23-.134.263-.128.054.01.129.054.256.181l.354-.353zm-1.198-.08l-.178.149.322.383.177-.149-.321-.383zm-.174.146c-.29.234-.519.149-.597.11l-.218.45c.186.09.639.224 1.129-.171l-.314-.39zm-.579.12a5.556 5.556 0 00-1.398-.581l-.127.483c.452.12.879.298 1.271.53l.254-.432zm-1.394-.58a.468.468 0 01-.188-.11c-.071-.066-.152-.184-.175-.397l-.497.052c.035.333.171.56.33.71a.967.967 0 00.395.226l.135-.481zm-.362-.503l-.021-.231-.498.045.02.23.499-.044zm-.02-.225c-.02-.285-.108-.514-.308-.654-.183-.128-.41-.143-.596-.143v.5c.18 0 .265.022.309.053.027.019.082.071.095.277l.5-.033zm-.904-.797h-.303v.5h.303v-.5zm-.303 0c-.187 0-.413.015-.596.143-.2.14-.29.37-.308.654l.5.033c.012-.206.067-.258.094-.277.045-.031.13-.053.31-.053v-.5zm-.903.791l-.021.23.498.045.02-.23-.497-.045zm-.02.227c-.027.246-.132.368-.216.432a.486.486 0 01-.154.077l-.005.002h.002l.001-.001.045.246.044.246h.002l.004-.001a.449.449 0 00.036-.009.987.987 0 00.327-.162c.187-.142.369-.385.41-.778l-.497-.052zm-.577.756a.255.255 0 00.007.063v-.003a.227.227 0 01-.007-.056h.5a.255.255 0 00-.008-.063l.001.003a.243.243 0 01.007.056h-.5zm.184-.237c-.46.126-.895.31-1.298.542l.25.434c.367-.212.763-.38 1.18-.494l-.132-.482zm-.965.62c.011.017.017.031.019.035l.001.003a.273.273 0 00-.055-.083l-.354.353A.241.241 0 015.14 3.5c-.007-.011-.01-.02-.012-.023v-.002l.002.006a.268.268 0 00.02.038l.417-.278zm-.212.132a21.068 21.068 0 01-.143-.206.081.081 0 00-.002.001.487.487 0 01-.163.054c-.104.014-.265.003-.458-.153l-.314.39c.307.247.608.29.84.258a.987.987 0 00.378-.136l.003-.002h.001v-.001l-.142-.205zm-.762-.3l-.178-.15-.321.383.178.15.32-.384zm-.174-.146c-.215-.188-.44-.287-.68-.245-.22.04-.39.189-.522.32l.353.354c.128-.127.203-.172.256-.181.033-.006.109-.008.264.128l.329-.376zm-1.202.076l-.214.214.353.353.214-.214-.353-.353zm-.214.214c-.132.132-.281.303-.32.522-.043.24.055.465.243.68l.377-.33c-.136-.154-.134-.23-.128-.263.01-.053.054-.128.182-.256l-.354-.353zm-.08 1.198l.15.177.382-.322-.15-.177-.382.322zm.146.173c.156.194.167.354.153.458a.486.486 0 01-.057.168h.001a.413.413 0 00.001-.002l.205.143.205.143v-.001a.078.078 0 00.004-.004.477.477 0 00.02-.032.986.986 0 00.117-.346c.031-.232-.012-.533-.26-.84l-.389.313zm.147.962c.023.018.044.029.05.032l.003.001-.015-.008.258-.429a.29.29 0 00-.02-.01l-.003-.002a.207.207 0 01.04.025l-.313.39zm-.05-.314a5.522 5.522 0 00-.54 1.298l.482.132c.114-.418.28-.813.492-1.181l-.434-.249zm-.25 1.119a.217.217 0 01.015.004l.006.001h-.003a.281.281 0 00-.016-.005l-.121.485a.206.206 0 01-.011-.003h-.001.002l.01.003a.283.283 0 00.02.005l.099-.49zm-.058.242a21.32 21.32 0 01-.247-.044V6.55l.001-.002-.001.005a.486.486 0 01-.078.154c-.063.084-.185.19-.431.216l.053.497c.392-.042.636-.225.777-.412a.986.986 0 00.17-.363l.001-.003V6.64l-.245-.045zm-.751.327l-.232.02.043.498.232-.02-.043-.498zm-.227.02c-.284.019-.513.108-.653.308-.128.183-.143.41-.143.596h.5c0-.18.022-.265.053-.31.02-.027.072-.082.277-.095l-.034-.5zm-.796.904v.303h.5v-.303h-.5zm0 .303c0 .187.015.413.143.596.14.2.369.289.654.307l.032-.499c-.204-.013-.257-.068-.276-.095-.031-.045-.053-.129-.053-.309h-.5zm.79.903l.232.02.045-.498-.232-.02-.044.498zm.228.02c.247.026.368.132.431.216a.486.486 0 01.08.159H2.61v-.002-.001l.246-.045.246-.044a.018.018 0 000-.002.213.213 0 00-.003-.013.636.636 0 00-.034-.11.987.987 0 00-.135-.244c-.141-.187-.385-.37-.777-.411l-.053.497zm.756.577a.26.26 0 00.078-.012l.006-.002a.222.222 0 01-.016.005l-.121-.485a.273.273 0 00-.021.006l.003-.001a.23.23 0 01.07-.01v.5zm-.234-.186c.126.459.306.895.536 1.3l.435-.248a5.113 5.113 0 01-.488-1.184l-.483.132zm.577.999a.247.247 0 01.09-.057l.005-.002h-.002l-.005.002a.227.227 0 00-.051.025.258.258 0 00-.043.035l.354.353a.248.248 0 01-.09.057l-.005.002h.002l.005-.002a.26.26 0 00.093-.06l-.353-.353zm.171.18a16.462 16.462 0 01-.205.142v-.001l-.002-.001s0-.001 0 0l.003.004c.003.006.01.017.016.032.014.03.03.076.038.132.014.104.003.265-.153.458l.389.314c.248-.307.291-.609.26-.84a.987.987 0 00-.132-.37l-.005-.008c0-.002-.002-.003-.002-.003l-.001-.002-.206.142zm-.3.762l-.149.177.382.322.15-.177-.383-.322zm-.146.174c-.188.214-.286.439-.244.68.04.22.189.39.321.522l.353-.355c-.128-.126-.172-.201-.181-.255-.006-.032-.008-.109.128-.263l-.377-.33zm.077 1.201l.214.215.354-.353-.214-.215-.354.353zm.214.215c.132.132.302.282.522.32.241.043.466-.056.68-.245l-.33-.376c-.154.136-.23.135-.263.129-.053-.01-.128-.054-.256-.181l-.353.353zm1.197.08l.178-.148-.32-.385-.178.148.32.385zm.176-.146c.193-.156.353-.168.457-.153a.484.484 0 01.163.053l.005.003h-.002v-.001H5.21l.143-.206a19.53 19.53 0 00.143-.205l-.002-.002c-.001 0-.002 0-.003-.002-.002 0-.005-.003-.008-.005a.832.832 0 00-.101-.054.986.986 0 00-.269-.077c-.232-.032-.533.011-.84.26l.315.389zm.942-.127a.265.265 0 00.044-.06l.002-.005a.017.017 0 01.001-.001.305.305 0 01-.026.041.259.259 0 01-.02.023l-.354-.354a.251.251 0 00-.044.06l-.002.005a.017.017 0 01-.001.001.305.305 0 01.026-.041.246.246 0 01.02-.023l.354.354zm-.3.038c.405.232.84.413 1.3.54l.132-.483a5.075 5.075 0 01-1.183-.49l-.25.433zm1.116.298v.002h.5v-.002h-.5zm.25.002l-.045.246H6.55h-.002l.005.001a.484.484 0 01.154.078c.084.063.19.185.215.432l.498-.053c-.042-.393-.224-.636-.411-.778a.986.986 0 00-.354-.169l-.01-.002h-.003-.001-.001l-.044.245zm.326.753l.02.23.499-.045-.021-.23-.498.045zm.02.224c.019.284.108.513.308.653.183.128.41.143.596.143v-.5c-.18 0-.265-.021-.31-.053-.027-.018-.082-.07-.095-.276l-.499.033zm.904.796h.303v-.5h-.303v.5zm.303 0c.186 0 .413-.015.596-.143.2-.14.288-.369.307-.653l-.499-.033c-.013.205-.068.258-.095.277-.044.03-.128.052-.31.052v.5zm.903-.79l.02-.23-.497-.045-.021.23.498.045zm.02-.226c.04-.371.262-.473.343-.501l-.164-.473c-.196.068-.609.295-.676.92l.497.054zm.323-.495c.508-.13.986-.332 1.425-.59l-.252-.43a5.047 5.047 0 01-1.297.536l.124.484zm1.411-.581a.48.48 0 01.218-.05.616.616 0 01.384.158l.314-.39a1.112 1.112 0 00-.692-.268.98.98 0 00-.448.102l.224.448zm.598.105l.178.149.32-.384-.177-.148-.32.383zm.174.145c.214.188.439.287.68.244.22-.038.39-.188.522-.32l-.354-.353c-.127.127-.202.171-.256.181-.032.006-.108.007-.263-.128l-.33.376zm1.202-.076l.214-.214-.353-.354-.215.215.354.353zm.214-.214c.132-.132.281-.303.32-.523.043-.24-.056-.465-.245-.68l-.375.33c.135.154.134.23.128.263-.01.054-.054.129-.181.256l.353.354zm.08-1.199l-.149-.176-.383.32.148.178.383-.322zm-.146-.173c-.237-.294-.147-.524-.11-.598l-.447-.224c-.091.182-.233.639.168 1.136l.39-.314zm-.118-.583a5.58 5.58 0 00.606-1.466l-.485-.123c-.12.475-.309.922-.552 1.335l.43.254zm.595-1.432c.038-.093.147-.284.49-.321l-.053-.497c-.575.062-.812.417-.9.627l.463.191zm.486-.32l.23-.021-.044-.498-.23.02.044.498zm.225-.02c.284-.02.513-.108.653-.309.128-.182.143-.409.143-.595h-.5c0 .18-.022.265-.053.31-.019.026-.071.08-.276.094l.033.5zm.796-.904v-.303h-.5v.303h.5zm0-.303c0-.186-.015-.413-.143-.596-.14-.2-.368-.29-.653-.308l-.033.499c.205.013.257.068.276.095.031.045.053.13.053.31h.5z" fill="#162D45"/></svg>
